!! 00000] TT[00
!! NN
!!!OTL: Gan zhan ge
!!!ARE: Gansu, Sunan
!! Ethnic Group: Yugu
!! I, 145 (2)
!!!SCT: C0836
!!!YEM: Copyright 1995, estate of Helmut Schaffrath.
**kern
*ICvox
*Ivox
*M6/8
*k[b-]
*F:
{16c
8.c
16A
8c
8d
8r
=1
16d
16f
8.d
16c
8d
8d
8r}
=2
{8d
8.d
16c
8d
16d
16f
8r
=3
16d
16f
8.d
16f
8c
8c
8r}
=4
{8g
8.f
16d
8f
8g
8r
=5
8g
8.f
16d
8f
8d
8r}
=6
{8g
8.f
16d
8f
8g
8r
=7
8g
8.f
16d
8g
8f
8r}
=8
{16A
16G
8.A
16G
16A
16c
8d
8r
=9
16d
16c
8.d
16f
8c
8A
8r}
=10
{16A
16G
8.A
16G
16A
16c
8d
8r
=11
16d
16c
8.d
16f
8d
8c
8r}
=12
{8g
8.f
16d
8g
8a
8r
=13
16g
16a
8.g
16f
16g
16f
8d
8r}
=14
{8g
8.f
16d
8g
8a
8r
=15
16g
16a
8.g
16f
8g
8f
8r}
==
!!!AGN: Haozi. Jisuan gan zhan de cishu
!! NN
!!!ONB: ESAC (Essen Associative Code) Database: CHINA
!!!AMT: compound duple
!!!AIN: vox
!!!EED: Helmut Schaffrath
!!!EEV: 1.0
*-
